X: 19
T: Gladiolus Rag
C: Scott Joplin
%%abc-version 2.0
%%abcx-abcm2ps-target-version 5.9.1 (29 Sep 2008)
%%abc-creator hum2abc beta
%%abcx-conversion-date 2021/07/20 09:00:57
%%abc-copyright 2021 Craig Stuart Sapp
%%abc-edited-by Craig Stuart Sapp
%%abc-edited-by Craig Stuart Sapp
%%abcx-initial-encoding-date 2004/11/28
%%humdrum-veritas 3863446787
%%humdrum-veritas-data 2955133941
%%removed 0's from note length
%%linebreak <none>
%%barnumbers 0
L: 1/8
M: 2/4
N: Derived from gladiolus.krn
Q: "Slow march tempo." 1/4=88
%%staves {1 2}
V: 1 clef=treble
V: 2 clef=bass
K: Ab
[V:1] z [I:setbarnb 1]]|:  
[V:2] [E,E,,] ]|:  
[V:1] z/ c'/a/f/ =d/e/A/B/ | 
[V:2] [A,A,,][CA,E,] [E,E,,][CA,E,] | 
[V:1] _c/G/A/B/- B/e/e'/d'/ & =D>[G_D]- [GD] z | 
[V:2] [F,F,,][_F,_F,,] [E,E,,][DG,E,] | 
[V:1] z/ c'/a/f/ =d/e/A/B/ | 
[V:2] [A,A,,][CA,E,] [E,E,,][CA,E,] | 
[V:1] _c/G/A/[B/G/]- [BGD]B,/=C/ & =D>_D-x2 | 
[V:2] [F,F,,][_F,_F,,] [E,E,,]B,,/=C,/ | 
[V:1] F,[dB-G-] [cBG]B,/C/ | 
[V:2] F,,F =EB,,/C,/ | 
[V:1] F,[fB-G-][=eBG] z | 
[V:2] F,,DC z | 
[V:1] F,,/G,,/A,,/C,/ F,/G,/A,/C/ | 
[V:2] F,,,/G,,,/A,,,/C,,/ F,,/G,,/A,,/C,/ | 
[V:1] F/G/A/c/ f/g/a/c'/ | 
[V:2] F,/G,/A,/C/ F/G/A/c/[K:clef=treble] | 
[V:1] [f'f][g'/g/][f'/f/]- [f'/f/][g'/g/][f'/f/][f'/f/]- | 
[V:2] [=BAF=D][BAFD] [BAFD][BAFD] | 
[V:1] [f'/f/]e'/c'/b/ a/e'd'/- | 
[V:2] [cAE][cAE] [cA_G][cAG] | 
[V:1] d'/b/b'/a'/ a/c'f'/ | 
[V:2] [dAF][dA_F] [cAE][cAE] | 
[V:1] e'/b/=b/c'/- c'/=d/e/[f/F/]- | 
[V:2] [dGE][dGE] [cAE][cAE][K:clef=bass] | 
[V:1] [fF][g/G/][f/F/]- [f/F/][g/G/][f/F/][f/F/]- | 
[V:2] [=B,A,F,=D,][B,A,F,D,] [B,A,F,D,][B,A,F,D,] | 
[V:1] [f/F/]e/c/B/ A/ed/- | 
[V:2] [CA,E,][CA,E,] [CA,_G,][CA,G,] | 
[V:1] d/B/b/a/ c/[fA]e/ |[1 
[V:2] [DA,F,][DA,_F,] [CA,E,][CA,E,] | 
[V:1] A/B/[BG] [AC] z & =D_Dx2 :|][2 
[V:2] [=F,=F,,][E,E,,] [A,A,,][E,E,,] :|]  
[V:1] A/B/[BG] [AC]!accent!e & =D_Dx2 ]|: 
[V:2] [=F,=F,,][E,E,,] [A,A,,]!accent![=A,=A,,] ]|:  
[V:1] z/ g/b/d'/ [f'/g/]e'd'/ | 
[V:2] [B,B,,][DG,E,] [E,E,,][DG,E,] | 
[V:1] e/g/b/[e'/g/e/]- [e'/g/e/][g/d/G/][a/d/A/][b/d/B/] | 
[V:2] [G,G,,][DG,E,] [E,E,,][DG,E,] | 
[V:1] [=b/=d/=B/][c'ec][b/d/B/] [c'ec][b/d/B/][c'/e/c/]- | 
[V:2] [A,A,,][CA,E,] [E,E,,][CA,E,] | 
[V:1] [c'3e3c3][ec] | 
[V:2] [A,/A,,/][G,/G,,/][A,/A,,/][C/C,/] [EE,][=A,=A,,] | 
[V:1] [=e/d/][fd][d/B/]-[d2B2] | 
[V:2] [B,B,,][DG,E,] [E,/E,,/][=E,/=E,,/][F,/F,,/][^F,/^F,,/] | 
[V:1] [=e/d/][fd][d/B/]-[d2B2] | 
[V:2] [G,G,,][DG,E,] [E,/E,,/][=E,/=E,,/][F,/F,,/][G,/G,,/] | 
[V:1] [=e/c/][fc]g/ [f/c/]c/_e/a/ | 
[V:2] [A,A,,][CA,E,] [E,E,,][CA,E,] | 
[V:1] [c'4e4c4] | 
[V:2] [A,/A,,/][E,/E,,/][=E,/=E,,/][F,/F,,/] [^F,/^F,,/][G,/G,,/][A,/A,,/][=A,/=A,,/] | 
[V:1] z/ g/b/d'/ [f'/g/]e'd'/ | 
[V:2] [B,B,,][DG,E,] [E,E,,][DG,E,] | 
[V:1] e/g/b/[e'/g/e/]- [e'/g/e/][g/d/G/][a/d/A/][b/d/B/] | 
[V:2] [G,G,,][DG,E,] [E,E,,][DG,E,] | 
[V:1] [=b/=d/=B/][c'ec][c'/=e/c/]- [c'/e/c/][g/e/][c'gec] | 
[V:2] [A,A,,][CA,E,] [G,G,,][CB,=E,] | 
[V:1] [c'afc][c'/c/]f/ a/[c'afc][c'/f/d/]- | 
[V:2] [F,F,,][CA,F,] [F,F,,][_E,_E,,] | 
[V:1] [c'fd]>b a/f/d | 
[V:2] [D,D,,][DA,F,] [F,F,,][_F,_F,,] | 
[V:1] [c'ec]>b a/e/c | 
[V:2] [E,E,,][CA,E,] [CC,][=A,=A,,] | 
[V:1] [=e/d/][fd]g/ [f/d/]G/B/_e/ |[1 
[V:2] [B,B,,][DG,E,] [E,E,,][DG,E,] | 
[V:1] A3e :|][2 
[V:2] C3z & A,[E,E,,] [A,A,,][=A,=A,,] :|]  
[V:1] A{/=d}ez2 || 
[V:2] [CA,] z {/=D} E[E,E,,] ||  
[V:1] z/ c'/a/f/ =d/e/A/B/ | 
[V:2] [A,A,,][CA,E,] [E,E,,][CA,E,] | 
[V:1] _c/G/A/B/- B/e/e'/d'/ & =D>[G_D]- [GD] z | 
[V:2] [F,F,,][_F,_F,,] [E,E,,][DG,E,] | 
[V:1] z/ c'/a/f/ =d/e/A/B/ | 
[V:2] [A,A,,][CA,E,] [E,E,,][CA,E,] | 
[V:1] _c/G/A/B/- BB,/=C/ & =D>[G_D]- [GD] x | 
[V:2] [F,F,,][_F,_F,,] [E,E,,]B,,/=C,/ | 
[V:1] F,[dB-G-] [cBG]B,/C/ | 
[V:2] F,,F =EB,,/C,/ | 
[V:1] F,[fB-G-][=eBG] z | 
[V:2] F,,DC z | 
[V:1] F,,/G,,/A,,/C,/ F,/G,/A,/C/ | 
[V:2] F,,,/G,,,/A,,,/C,,/ F,,/G,,/A,,/C,/ | 
[V:1] F/G/A/c/ f/g/a/c'/ | 
[V:2] F,/G,/A,/C/ F/G/A/c/[K:clef=treble] | 
[V:1] [f'f][g'/g/][f'/f/]- [f'/f/][g'/g/][f'/f/][f'/f/]- | 
[V:2] [=BAF=D][BAFD] [BAFD][BAFD] | 
[V:1] [f'/f/]e'/c'/b/ a/e'd'/- | 
[V:2] [cAE][cAE] [cA_G][cAG] | 
[V:1] d'/b/b'/a'/ a/c'f'/ | 
[V:2] [dAF][dA_F] [cAE][cAE] | 
[V:1] e'/b/=b/c'/- c'/=d/e/[f/F/]- | 
[V:2] [dGE][dGE] [cAE][cAE][K:clef=bass] | 
[V:1] [fF][g/G/][f/F/]- [f/F/][g/G/][f/F/][f/F/]- | 
[V:2] [=B,A,F,=D,][B,A,F,D,] [B,A,F,D,][B,A,F,D,] | 
[V:1] [f/F/]e/c/B/ A/ed/- | 
[V:2] [CA,E,][CA,E,] [CA,_G,][CA,G,] | 
[V:1] d/B/b/a/ c/[fA]e/ | 
[V:2] [DA,F,][DA,_F,] [CA,E,][CA,E,] | 
[V:1] A/B/[BG] [AC] & =D_D x ||  
[V:2] [=F,=F,,][E,E,,] [A,A,,] ||  
[V:1]  [K:Db] [aA] [I:setbarnb 51]]|:  
[V:2]  [K:Db] z ]|:  
[V:1] [a/f/d/A/]d/f/[b/g/d/B/]- [b/g/d/B/][c'/c/][d'/d/][e'/e/] | 
[V:2] [D,D,,][DA,F,] [G,G,,][DB,G,] | 
[V:1] [f'/f/][a'/a/][f'/f/][e'/e/] [d'/d/][b/B/][a/A/][f/F/] | 
[V:2] [D,D,,][DA,F,] [F,F,,][DA,F,] | 
[V:1] f/eG/- G/f/e & [cG]>G- G[cG] | 
[V:2] [A,,A,,,][CA,G,] [C,C,,][CA,G,] | 
[V:1] e/dF/- F/e/d & [AF]>F- F[BF] | 
[V:2] [D,D,,][DA,F,] [D,D,,][B,,B,,,] | 
[V:1] c/A/c/d/- [d/B/E/]E/[cBE] & [AF]>[B=E]-x2 | 
[V:2] [C,C,,][CA,F,] [=G,=G,,][C,C,,] | 
[V:1] c/A/c/=B/- [BAF][_BA_F] & [AF]>[AF]-x2 | 
[V:2] [F,F,,][_E_E,] [=D=D,][_D_D,] | 
[V:1] A/e/_f [fd=G][ed_G] & E[_cA]x2 | 
[V:2] [CC,][_C_C,] [B,B,,][__B,__B,,] | 
[V:1] [e=cG][a/e/c/A/]A/ c/[aecA][a/f/d/A/]- | 
[V:2] [A,A,,][G,G,,] [F,F,,][E,E,,] | 
[V:1] [a/f/d/A/]d/f/[b/g/d/B/]- [b/g/d/B/][c'/c/][d'/d/][e'/e/] | 
[V:2] [D,D,,][DA,F,] [G,G,,][DB,G,] | 
[V:1] [f'/f/][a'/a/][f'/f/][e'/e/] [d'/d/][b/B/][a/A/][f/F/] | 
[V:2] [D,D,,][DA,F,] [F,F,,][DA,F,] | 
[V:1] F/[fc=A]F/ [fcA]F/[f/d/B/]- | 
[V:2] [F,F,,][EC=A,F,] [CC,][ECA,F,] | 
[V:1] [f/d/B/][=a/=A/][b/B/][c'/c/] [d'/d/][e'/e/][f'_c'f] | 
[V:2] [B,B,,][DB,F,] [B,B,,][_A,_A,,] | 
[V:1] [f'bg]>e' d'/b/g | 
[V:2] [G,G,,][GDB,] [B,B,,][__B,__B,,] | 
[V:1] [f'af]>e' d'/a/f | 
[V:2] [A,A,,][FDA,] [F,F,,][A,A,,] | 
[V:1] f/eG/- G/f/e & [cG]>G- G[cG] |[1 
[V:2] [A,,A,,,][CA,G,] [A,,A,,,][CA,G,] | 
[V:1] [d2A2F2][a2e2c2A2] :|][2 
[V:2] [D,D,,][A,/A,,/][B,/B,,/]- [B,/B,,/][A,/A,,/][G,/G,,/][E,/E,,/] :|]  
[V:1] [d3A3F3]!accent![d'afd] ]|: 
[V:2] [D,D,,]!accent![DD,] !accent![CC,]!accent![_C_C,] ]|:  
[V:1] d'>d'- d'd'- & d'/[bgd]d'/- [bge]d'/[b/g/f/]- | 
[V:2] [B,B,,][GDB,] [G,G,,][=A,=A,,] | 
[V:1] d'<d' d'b & [b/g/f/]d'/[bge] [bgd][gdB] | 
[V:2] [B,B,,][GDB,] [B,B,,][G,G,,] | 
[V:1] a>a- aa- & a/[fdA]a/- [fdB]a/-[f/d/c/]- | 
[V:2] [F,F,,][FDA,] [FDA,][A,,A,,,] | 
[V:1] a<a a=g & [fdc][fdB] [fdA][dB=G] | 
[V:2] [D,D,,][FDA,] [F,F,,][=E,=E,,] | 
[V:1] g>g- gg- & g/[ecG]g/- [ecA]g/[e/c/B/]- | 
[V:2] [_E,_E,,][ECA,] [A,,A,,,][=D,=D,,] | 
[V:1] g<g ge' & [ecB][ecA] [ecG][c'ae] | 
[V:2] [E,E,,][ECA,] [A,A,,][G,G,,] | 
[V:1] [e'/a/e/][d'ad][c'/=e/d/]- [c'ed][bed] | 
[V:2] [F,F,,][FDA,] =G,/B,/D/=E/ | 
[V:1] [a3f3d3]!accent![d'afd] | 
[V:2] F!accent![DD,] !accent![CC,]!accent![_C_C,] | 
[V:1] d'>d'- d'd'- & d'/[bgd]d'/- [bge]d'/[b/g/f/]- | 
[V:2] [B,B,,][GDB,] [G,G,,][=A,=A,,] | 
[V:1] d'<d' d'b & [b/g/f/]d'/[bge] [bgd][gdB] | 
[V:2] [B,B,,][GDB,] [B,B,,][G,G,,] | 
[V:1] a>a- aa- & a/[fdA]a/- [fdB]a/[f/d/c/]- | 
[V:2] [F,F,,][FDA,] [FDA,][A,,A,,,] | 
[V:1] a<a af & [f/d/c/]a/[fdB] [fdA][dAF] | 
[V:2] [D,D,,][FDA,] [F,F,,][A,A,,] | 
[V:1] z/ d/_F/__B< _fd/- & x2_f/[_cA_F]d/ | 
[V:2] [__B,__B,,][DB,_F,] [A,A,,][_CA,F,] | 
[V:1] d/_F/__B/_f/[=f2d2A2=F2] | 
[V:2] [__B,__B,,][DB,_F,] A,,/D,/=F,/A,/ | 
[V:1] f/eG/- G/f/e & [cG]>G- G[cG] |[1 
[V:2] A,,[CA,G,] [A,,A,,,][CA,G,] | 
[V:1] [d3A3F3]!accent![d'afd] :|][2 
[V:2] [D,D,,]!accent![DD,] !accent![CC,]!accent![_C_C,] :|]  
[V:1] [d2A2F2][d'afd] |]  
[V:2] [D,D,,]{/G,,}A,,D,, |]  


